X: 7644
T:Polska
R:Polska
O:Sweden
M:3/4
K:DDor
|: E|FG/2F/2 E3E|F2 E^C EG|(3FDF E^C E2\
|1 D2E3 E:|2D^C D3:|
|:A-|(3AB^c d>e f>a| (3gfga3e|f>a (3geg (3fdf\
|1 e>d ^c2 A2:|2 e^c d3:|
